X:1
T:Sechs Lieder
T:Sec hs Lieder für Sopran, Alt, Tenor und Bass im Freien zu singen, in Musik gesetzt von FELIX MENDELSSOHN BARTHOLDY Op. 48 _______________________________ 
T:CPDL - Creative Commons Attribution Non Commercial 3.0
T:CPDL - Creative Commons Attribution Non Commercial 3.0
T:CPDL - Creative Commons Attribution Non Commercial 3.0
T:CPDL - Creative Commons Attribution Non Commercial 3.0
T:CPDL - Creative Commons Attribution Non Commercial 3.0
T:CPDL - Creative Commons Attribution Non Commercial 3.0
T:CPDL - Creative Commons Attribution Non Commercial 3.0
T:CPDL - Creative Commons Attribution Non Commercial 3.0
T:CPDL - Creative Commons Attribution Non Commercial 3.0
T:CPDL - Creative Commons Attribution Non Commercial 3.0
T:CPDL - Creative Commons Attribution Non Commercial 3.0
T:CPDL - Creative Commons Attribution Non Commercial 3.0
T:CPDL - Creative Commons Attribution Non Commercial 3.0
T:CPDL - Creative Commons Attribution Non Commercial 3.0
T:CPDL - Creative Commons Attribution Non Commercial 3.0
T:CPDL - Creative Commons Attribution Non Commercial 3.0
T:CPDL - Creative Commons Attribution Non Commercial 3.0
T:CPDL - Creative Commons Attribution Non Commercial 3.0
T:CPDL - Creative Commons Attribution Non Commercial 3.0
T:CPDL - Creative Commons Attribution Non Commercial 3.0
T:CPDL - Creative Commons Attribution Non Commercial 3.0
T:CPDL - Creative Commons Attribution Non Commercial 3.0
T:CPDL - Creative Commons Attribution Non Commercial 3.0
T:CPDL - Creative Commons Attribution Non Commercial 3.0
T:CPDL - Creative Commons Attribution Non Commercial 3.0
T:CPDL - Creative Commons Attribution Non Commercial 3.0
T:CPDL - Creative Commons Attribution Non Commercial 3.0
T:CPDL - Creative Commons Attribution Non Commercial 3.0
T:CPDL - Creative Commons Attribution Non Commercial 3.0
C:Felix Mendelssohn Bartholdy
Z:CPDL - Creative Commons Attribution Non Commercial 3.0
%%score [ 1 2 ( 3 4 ) ( 5 6 ) ]
L:1/8
Q:1/4=96
M:6/8
K:E
V:1 treble nm="S"
V:2 treble nm="A"
V:3 treble-8 nm="T"
V:4 treble-8 
V:5 bass nm="B"
V:6 bass 
V:1
!p!"^Andante sostenuto" G3 A2!<(! G!<)! |!>(! c2!>)! B !fermata!B3 |!f!"^più animato" B3{c} B^AB | %3
w: O sanf- ter|sü- ßer Hauch!|Schon we- ckest du|
w: |||
 e3 B3 | G3{A} G^^FG | (B2 A) G3 | F3 (FG)A | c3 B2!p! B |{c} B^AB (ed)c | B3- (B^A)G | FBd d2 c | %11
w: wie- der,|schon we- ckest du|wie- * der|mir Früh- * lings-|lie- der, bald|blü- hen die Veil- * chen|auch, _ _ bald|blü- hen die Veil- chen|
w: ||||||||
 B2 z z3 |!p! d2 z z3 |!f! g3- g2 z | ^A2 B (dc)B | B6 |!p! F3[Q:1/4=90]"^ritard." G2!<(! F!<)! | %17
w: auch,|bald,|bald _|blüh'n die Veil- * chen|auch.|O sanf- ter|
w: ||||||
!>(! B2!>)! A !fermata!A3 |!f! G3 A2!<(! G!<)! |!>(! c2!>)! B !fermata!B3 | %20
w: sü- ßer Hauch!|O sanf- ter|sü- ßer Hauch!|
w: |||
[Q:1/4=96]"^Tempo I" z6 | z6 |!f! =d3 feB | =d3 c3 | e3 (eA)c | c3 B3 |!pp! ^A2 z z3 | c2 z z3 | %28
w: ||schon we- ckest du|wie- der|mir Früh- * lings-|lie- der,|bald,|bald|
w: ||||||||
 D2 E (GF)E | E3- E2!p! F | F2 F F2 F |"^cresc." F6- | (FG!<(!A Bcd!<)! | e!>(!gf e!>)!d)c | %34
w: blüh'n die Veil- * chen|auch, _ bald|blüh'n die Veil- chen|auch,|_ _ _ _ _ _|* * * * * bald|
w: ||||||
 B2 G G2 F | E2 z"^cresc." G3 |[Q:1/4=90]"^ritard." A2 G c2 B | !fermata!B6 |!pp! E3 F2 E | %39
w: blüh'n die Veil- chen|auch. O|sanf- ter sü- sser|Hauch!|O sanf- ter|
w: |||||
 G3- (GF)E | !fermata!E6 |][K:A][M:2/4][Q:1/4=72]"^Allegretto"!p! AG/A/ | dc A!<(!G/A/!<)! | %43
w: sü- * * ßer|Hauch!|1.~Lieb- li- che|Blu- me, bist du so|
w: ||2.~Lei- ser denn|al- le Blu- men der|
 fe dc/B/ | AG z2 | z2"^cresc." eG/A/ | c B2 z | z2 ed/e/ | dc!<(! cc/c/!<)! |!f!!>(! f2 e2!>)! | %50
w: früh schon wie- der ge-|kom- men?|Sei mir ge-|grü- ßet,|Bo- tin des|Früh- lings, sei mir ge-|grü- ßet,|
w: Wie- se hast du ge-|schlu- mmert,|lieb- li- che|Pri- mel,|Bo- tin des|Früh- lings, lieb- li- che|Pri- mel,|
 (^d2!p! =d)c/B/ | (A3 c/B/) | A z z2 |!pp! A2 (G/B/) (d/f/) | (ec) A z | A2 (G/B/) (d/f/) | %56
w: Bo- * tin des|Früh- * *|lings!|1.+2.~Sei mir _ ge- *|grü- * ßet,|sei mir _ ge- *|
w: Bo- * tin des|Früh- * *|lings!||||
 (ec) A z |!f! (ed) cB | f4 | e!p!A (c>B) | !fermata!A2 |] %61
w: grü- * ßet,|Bo- * tin des|Früh-|lings, des Früh- *|lings!|
w: |||||
[K:E][M:3/4]!mf![Q:1/4=120]"^Con moto espressivo" c>B | B3 E A>G |!<(! G4!<)!!f! B2- | %64
w: Sü- ßer,|gold'- ner Früh- lings-|tag! In-|
w: |||
 BB (^AB) (ce) | e2 d2 z2 |!p! (E2 F3) B | (A2 G4) | A2"^cresc." B3 e |!f! c2 ^d3 c | B2 B3 A | %71
w: * ni- ges _ Ent- *|zü- cken!|Wenn _ mir|je _|ein Lied ge-|lang, sollt' es|heut',~ sollt' es|
w: |||||||
 (G2"^dim." FG) (Ac) |!p! (F4 ^^F2) | G2!f! d3 c | B2 B3 A |!>(! G6-!>)! | (G2!p! FG) (Ac) | %77
w: heut' _ _ nicht *|glü- *|­cken? sollt' es|heut', sollt' es|heut'|_ _ _ nicht _|
w: ||||||
!pp! F2 E2 ||!mf! c>B | B3 E A>G |!<(! G4!<)!!f! B2- | BB (^AB) (ce) | e2 d2 z2 |!p! (E2 F3) B | %84
w: glü- ­cken?|Doch wa-|rum in die- ser|Zeit an|_ die Ar- * beit _|tre- ten?|Früh- * ling|
w: |||||||
 (A2 G4) | A2"^cresc." B3 e |!f! c2 ^d3 c | B2 B3 A | (G2"^dim." FG) (Ac) |!p! (F4 ^^F2) | %90
w: ist _|ein ho- hes|Fest: lasst mich|ruh'n, lasst mich|ruh'n _ _ und _|be- *|
w: ||||||
 G2!f! f3 d | e2"^dim." B3 A | G6- |!p! (G2 FG) (Ac) | F6 | E2 z2 z2 | z6 | z2!p! c3 B | %98
w: ten, lasst mich|ruh'n, lasst mich|ruh'n|_ _ _ und _|be-|ten,||lasst mich|
w: ||||||||
 (A2 G2) F2 | E6 |"^< >" !fermata!E4 |][K:G][M:4/4]!f![Q:1/4=120]"^Allegro vivace""^CANON" d | %102
w: ruh'n _ und|be-|ten!|Wie|
w: ||||
 d2 Bc d2 z d | (dg)Bc d2 z d | e2 dB e2 dB | (A3 d) d2 z A | A2 Bc d3 B | B2 cd e2!f! g2 | %108
w: lieb- li- cher Klang, o|Ler- * che, dein Sang! er|hebt sich, er~ schwingt sich in|Won- * ne. Du|nimmst mich von hier, ich|sin- ge mit dir, wir|
w: ||||||
 e2 de c2 Bc | A4 G2 g2 | e2 de c2 Bc | A4 G2 z |: z | z2 z!f! G (GD)GB | d3 d (dG)Bd | g4 g4 | %116
w: stei- gen durch Wol- ken zur|Son- ne, wir|stei- gen durch Wol- ken zur|Son- ne.||Wie lieb- * li- cher|Klang, o Ler- * che, dein|Sang, o|
w: ||||||||
 f2- (3fed d2 z d | d2 dd d3 =f | =f2 ed c4 | z2 G2 A2 BG | (cedc Bd) g2 | z2 G2 A2 BG | %122
w: Won- * * * ne! Du|nimmst mich von hier, ich|sin- ge mit dir,|wir stei- gen durch|Wol- * * * * * ken,|durch Wol- ken zur|
w: ||||||
S (cedc BG)B |!f! d | d2 Bc d2 z d | (dg)Bc d2 z d | e2 dB e2 dB | (A3 d) d2 z A | A2 Bc d3 B | %129
w: Son- * * * * * ne!|Wie|lieb- li- cher Klang, o|Ler- * che, dein Sang! er|hebt sich, er schwingt sich in|Won- * ne. Du|nimmst mich von hier, ich|
w: |||||||
 B2 cd e2!f! g2 | e2 de c2 Bc | A4 G2 g2 | e2 de c2 Bc | A4 G2 z :|!f!"^Coda" d | %135
w: sin- ge mit dir, wir|stei- gen durch Wol- ken zur|Son- ne, wir|stei- gen durch Wol- ken zur|Son- ne.|Zur|
w: ||||||
 !fermata!d4 !fermata!B3!f! e | !fermata!e4 c4- | !fermata!c3!f! e (dG)Bd | g8 | d7 d | %140
w: Son- ne! zur|Son- ne!|_ wir stei- * gen durch|Wol-|ken zur|
w: |||||
 (d4 c2 A2) | !fermata!G8 |][K:C][M:4/4]!f![Q:1/4=96]"^Adagio" G2 | e3 e d2 c2 | %144
w: Son- * *|ne!|1.~O|wun- der- ba- res,|
w: ||2.~Ich|füh- le mich wie|
 f3 f!>(! e2 d2!>)! |!p! G2 A>F F2 E2 |!pp! F2 F2 E3 E |"^cresc." A2 A2 A2 ^G2 | %148
w: tie- fes Schwei- gen,|wie ein- sam ist's noch|auf der Welt! Die|Wäl- der nur sich|
w: neu ge- schaf- fen,|wo ist die Sor- ge|nun und Not? Was|ges- tern noch mich|
 c2 c2!<(! c2 BA!<)! |!>(! d3 B!>)! G2!p! A2 | G3 G G4- | G2 z2 z4 | z2 z!f! c!>(! c2 =B>!>)!A | %153
w: lei- se nei- gen, als|ging' der Herr durch's|stil- le Feld,|_|als ging' _ der|
w: wollt' er- schlaf- fen, dess|schäm' ich mich im|Mor- gen- rot,|_|dess schäm' _ ich|
 G3!p! G G2 G2 |"^< >" !fermata!G6 ||!f! G2 | e3 e d2 c2 | f3 f!>(! e2 d2!>)! |!p! G2 A>F F2 E2 | %159
w: Herr durch's stil- le|Feld.|3.~Die|Welt mit ih- rem|Gram und Glü- cke|will ich, ein Pil- ger,|
w: mich im Mor- gen-|rot.|||||
!pp! F2 F2 E3 E |"^cresc." A2 A2 A2 ^G2 | c2 c2"^cresc." c2 BA |!f! d2"^cresc." =f2 e3 d | %163
w: froh- be- reit be-|­tre- ten nur als|ei- ne Brü- cke zu|dir, Herr, ü- ber'n|
w: ||||
 c2 (dB) g4- | g3 z z4 | z2 z!f! c c2!>(! (=B>A)!>)! |!p! G3 G G2 G2 |"^< >" !fermata!G8 |] %168
w: Strom der _ Zeit,|_|zu dir, Herr, _|ü- ber'n Strom der|Zeit!|
w: |||||
[K:G][M:3/8]!p![Q:1/4=48]"^Andante" B/B/ | B>A!<(!A/A/!<)! | ^d2 d/d/ | e>BB/A/ | GF!p!B/B/ | %173
w: Hol- der|Lenz, du bist da-|hin! Nir- gends,|nir- gends darfst du|blei- ben! Wo ich|
w: |||||
 B>"^cresc."Ad/A/ | B2 d/d/ |"^cresc." d>^ce/d/ | d^c z |!f! (fe)d | (^c"^dim."=c)B | e2 (e/^c/) | %180
w: sah dein fro- hes|Blüh'n, braust des|Herb- stes ban- ges|Trei- ben,|braust _ des|Herb- * stes|ban- ges *|
w: |||||||
!p! ^AB z |!pp! F/>F/F/!<(!F/F/F/!<)! | G3 | G/>"^cresc."^G/A/A/A/A/ | B A2 |!f! c/>c/c/B/^d/e/ | %186
w: Trei- ben.|Wie der Wind so trau- rig|fuhr|durch den Strauch, als ob er|wei- ne,|durch den Strauch, als ob er|
w: ||||||
 fB!p!B/>B/ | B>gf/^d/ | B2!p!"^sempre" B/>B/ | B>gf/^d/ | Be!f!G/>A/ | B3- | B/A/B/"^dim."c/d/e/ | %193
w: wei- ne; Ster- be-|seuf- zer der Na-|tur schau- ern|durch die wel- ken|Hai- ne, durch die|wel-|* ken, durch die wel- ken|
w: |||||||
!p! G2- (G/F/) | E2 ||!f! B/B/ |"^espress." B>!<(!AA/A/!<)! | ^d2 d/d/ | %198
w: Hai- * *|ne.|Wie- der|ist, wie bald, wie|bald! mir ein|
w: |||||
 e>!p![Q:1/4=40]"^ritard."BB/A/ | .G.F !fermata!z |!pp![Q:1/4=48]"^Tempo I" F/>F/F/!<(!F/F/F/!<)! | %201
w: Jahr da- hin ge-|schwun- den.|Fra- gend rauscht es durch den|
w: |||
 G3 | G/^G/"^cresc."A/>A/A/A/ | B A2 |!f! c/>c/c/B/^d/e/ | f2!pp! B/>B/ | c>BA/F/ | E2 ^D | %208
w: Wald:|hat dein Herz sein Glück ge-|fun- den?|fra- gend rauscht es durch den|Wald: hat dein|Herz sein Glück ge-|fun- den?|
w: |||||||
 !fermata!z3 ||[K:E][M:2/2]!mf![Q:1/4=96]"^Allegro" G3 G | G2 E2 B3 B |"^cresc." B4 c2 B2 | %212
w: |Wal- des-|rau- schen, wun- der-|bar hast du|
w: ||||
 A2 c2 !>!f3 e | e2 d2!f! g3 e | e3 c c3 B | B4!p! B2 G2 | F3 F F2 A2 | A2 G2!f! g3 e | e3 c c3 B | %219
w: mir das Herz ge-|trof- fen! Treu- lich|bringt ein je- des|Jahr neu- es|Laub wie neu- es|Hof- fen, treu- lich|bringt ein je- des|
w: |||||||
 B4!p! ^A2 B2 | e3 e d2 c2 | c2 B2!<(! ^A2 B2!<)! | e3 e d2 c2 | c2 B2 z4 | z4"^cresc." =d3 d | %225
w: Jahr neu- es|Laub wie neu- es|Hof- fen, neu- es|Laub wie neu- es|Hof- fen.|Wal- des-|
w: ||||||
 =d8 | =d4!f! d3 d | =d4 c2 B2 | A2 c2 !>!f3 e | e2 d2!f! g3 e | e3 c c3 B | B4!p! B2 G2 | %232
w: rau-|schen, wun- der-|bar hast du|mir das Herz ge-|trof- fen! Treu- lich|bringt ein je- des|Jahr neu- es|
w: |||||||
 F3 F F2 A2 | A2 G2 B2 G2 |"^cresc." F3 F F2 e2 |!f! e2 d4 B2 | g8- | (g2 f2 e2) c2 | (B6 A2) | %239
w: Laub wie neu- es|Hof- fen, neu- es|Laub wie neu- es|Hof- fen, wie|neu-|* * * es|Hof- *|
w: |||||||
 G4!f! c2 e2 | (g6 f2) | (e2"^dim." c2) B2 A2 | (G6 F2) | E4!p! F2 G2 | A2 c2 B2 A2 | G4 F2 G2 | %246
w: fen, neu- es|Laub _|wie _ neu- es|Hof- *|fen. Treu- lich|bringt ein je- des|Jahr, treu- lich|
w: |||||||
 A2 c2 B2 A2 | (A2 G2)!f! e3 B | B8 | z4!f! e3 B |"^dim." B8- | B4!p! G4 | G4 (B2 A2) | G8- | %254
w: bringt ein je- des|Jahr _ neu- es|Laub,|neu- es|Laub|_ wie|neu- es _|Hof-|
w: ||||||||
 (G4 F4) | !fermata!E8 |] %256
w: |fen.|
w: ||
V:2
!p! E3 E2!<(! E!<)! |!>(! A2!>)! G !fermata!G3 | z6 | z6 |!f! E3 EEE | E3 E3 | D3 (DE)F | %7
w: |||||||
w: |||||||
 D3 E2!p! E | EEE (EF)G | (F3 GF)E | DDF F2 E | D2 z z3 |!p! =A2 z z3 |!f! G3- G2 z | C2 D (FE)D | %15
w: ||||||||
w: ||||||||
 D6 |!p! D3 E2!<(! D!<)! |!>(! G2!>)! F !fermata!F3 |!f! E3 E2!<(! E!<)! | %19
w: ||||
w: ||||
!>(! A2!>)! G !fermata!G3 | z6 | z6 |!f! A3 BEE | E3 E3 | A3 A2 E | E3 E3 |!pp! F2 z z3 | F2 z z3 | %28
w: |||||||||
w: |||||||||
 B,2 E D2 E | E3- E2!p! E | E2 E E2 E |"^cresc." (E6 | D3-)!<(! (DEF!<)! |!>(! GBA G!>)!FE) | %34
w: ||||||
w: ||||||
 G2 E D2 D | E2 z"^cresc." E3 |"^rit." E2 E A2 G | !fermata!G6 |!pp! B,3 C2 B, | D3- D2 B, | %40
w: ||||||
w: ||||||
 !fermata!B,6 |][K:A][M:2/4]!p! EE/E/ | EE E!<(!E/E/!<)! | F=G FF/F/ | EE z2 | z2"^cresc." ^GE/E/ | %46
w: ||||||
w: ||||||
 E E2 z | z2 =GF/G/ | FE!<(! FF/F/!<)! |!f!!>(! F2 c2!>)! | B2-!p! BF/F/ | E2 E2 | %52
w: |||||Früh- lings!|
w: |||||Früh- lings!|
!pp! EF/E/ E (F/E/) | EF/E/ (DG) | A z EF/E/ | EF/E/ (DG) | A z!f! A2- | A2 (^GF) | (AG) AB | %59
w: 1.+2.~Sei mir ge- grü- ßet, _|sei mir ge- grü- *|ßet, Bo- tin des|Früh- lings, des Früh- *|lings, Bo-|* tin, _|Bo- * tin des|
w: |||||||
 (E2!p! GE) | !fermata!E2 |][K:E][M:3/4]!mf! C>E | E3 E D>E |!<(! (E2 G2 F2)!<)! | %64
w: Früh- * *|lings!|Sü- ßer,|gold'- ner Früh- lings-|tag! _ _|
w: |||||
!f! EE (GF) (EC) | F2 F2 z2 |!p! (B,2 C2) B,2 | E4!<(! (F>E)!<)! | (E2"^cresc." A2) G2 | %69
w: In- ni- ges _ Ent- *|zü- cken!|Wenn _ mir|je ein _|Lied _ ge-|
w: |||||
!f! A2 F3 F | B2 E3 E | E2"^dim." E4 | z2!p! D4 | E2!f! F3 F | B2 E3 F |!>(! (E2 D2 =D2!>)! | %76
w: lang, sollt' es|heut', sollt' es|heut' nicht|glü-|­cken? sollt' es|heut', sollt' es|heut' _ _|
w: |||||||
!p! C4) E2 |!pp! D2 E2 ||!mf! C>E | E3 E D>E |!<(! E2 G2 F2!<)! |!f! (E2 GF) (EC) | F2 F2 z2 | %83
w: _ nicht|glü- ­cken?|Doch wa-|rum in die- ser|Zeit an die|Ar- * * beit _|tre- ten?|
w: |||||||
!p! (B,2 C2) B,2 | E4 F>E | E>A"^cresc." A2 G2 |!f! A2 F3 F | (B2 E4-) | E2"^dim." E4 | z2!p! D4 | %90
w: Früh- * ling|ist Früh- ling|ist ein ho- hes|Fest: lasst mich|ruh'n, _|_ und|be-|
w: |||||||
 E2!f! D3 F | B2"^dim." G2 F2 | (F2 E2 D2 |!p! C4) E2 | (E2 D4) | E2!p! E3 E |!<(! E6-!<)! | %97
w: ten, lasst mich|ruh'n, lasst mich|ruh'n _ _|_ und|be- *|ten, lasst mich|ruh'n|
w: |||||||
!>(! E4- EE!>)! | E4 C2 | C6 |"^< >" !fermata!B,4 |][K:G][M:4/4]!f! B | B2 GA B2 z B | %103
w: _ _ mich|ruh'n und|be-|ten!|||
w: ||||||
 B2 GA B2 z B | c2 BG c2 BG | D4 F2 z F | F2 GA B3 G | G2 AB c2!f! e2 | c2 Bc A2 GA | F4 G2 e2 | %110
w: |||||||
w: |||||||
 c2 Bc A2 GA | D4 G2 z |: z | z2 z!f! G G2 GG | G3 G G2 GG | G3 G (GA)Bc | d4 D2 z c | c2 BA G3 G | %118
w: ||||||||
w: ||||||||
 G2 GG C4 | z2 G2 F2 GG |"^Wol           -" D4"^ken," G4 | z2 G2 F2 GG | (F4 GD)G |!f! B | %124
w: ||||||
w: ||||||
 B2 GA B2 z B | B2 GA B2 z B | c2 BG c2 BG | D4 F2 z F | F2 GA B3 G | G2 AB c2!f! e2 | %130
w: ||||||
w: ||||||
 c2 Bc A2 GA | F4 G2 e2 | c2 Bc A2 GA | D4 G2 z :|!f! B | !fermata!B4 !fermata!G3!f! c | %136
w: ||||||
w: ||||||
 !fermata!c4 G4- | !fermata!G3 z4 z | z2 z!f! G (GB,)DG | B4 B3 G | (B4 A2 F2) | !fermata!G8 |] %142
w: ||wir stei- * gen durch|Wol- ken zur|Son- * *|ne!|
w: ||||||
[K:C][M:4/4]!f! E2 | G3 G F2 E2 | A3 A!>(! G2 G2!>)! |!p! G2 A>F F2 E2 |!pp! E2 (D>C) B,3 D | %147
w: |||||
w: |||||
"^cresc." (CD) (EF) E3"^sich" D | (CE) (AG)!<(! ^F2 FA!<)! |!>(! G2 =F2!>)! E2!p! _E2 | D2 F2 =E4 | %151
w: ||||
w: ||||
 z2 z!f! F (F2 E>)D | C2!>(! _B2 A2!>)! _E2 | D3!p! =E F2 F2 |"^< >" !fermata!E6 ||!f! E2 | %156
w: als ging' _ der|Herr, als ging' der|Herr * * *|||
w: dess schäm' _ ich|mich, dess schäm' ich|mich * * *|||
 G3 G B2 c2 | A3 A!>(! G2 G2!>)! |!p! G2 C>B, B,2 (CE) |!pp! E2 D2 ^C3 C | %160
w: ||||
w: ||||
"^cresc." (CD) (EF) E3 D | (=CE) (AG) ^F2 FF |!f!"^cresc." G3 G G2 A2 | G3 G G4- | %164
w: ||||
w: ||||
 G2 z!f! F (F2 E>)D | (C2!>(! _B2 A2) _E2!>)! |!p! D3 =E F2 F2 |"^< >" !fermata!E8 |] %168
w: * zu dir, _ zu|dir, _ _ Herr,|||
w: ||||
[K:G][M:3/8]!p! G/G/ | G>F!<(!F/F/!<)! |!>(! AG!>)!F | E>EG/F/ | E^D!p!G/G/ | G>"^cresc."GF/F/ | %174
w: Hol- der|Lenz, du bist da-|hin! Nir- gends,|nir- gends darfst du|blei- ben! Wo ich|sah dein fro- hes|
w: ||||||
 GGF |"^cresc." E>EE/F/ | GG!f!F/>F/ | (F3 | G"^dim."A)G | EE z |!p! ED z | z3 | %182
w: Blüh'n, braust des|Herb- stes ban- ges|Trei- ben, braust des|Herb-|* * stes|ban- ges|Trei- ben.||
w: ||||||||
!pp! D/>D/D/!<(!D/=F/F/!<)! | (E"^cresc." G2) | D/>D/D/D/^F/F/ |!f! (F A2) | A2!p! A/>A/ | %187
w: Wie der Wind so trau- rig|fuhr _|durch den Strauch, als ob er|wei- *|ne; Ster- be-|
w: |||||
 GGA/>A/ | G!p!"^sempre"GF | E/>G/GA | AG z |!f! F2 =F | EE z | z!p! (E^D) | E2 ||!f! G/G/ | %196
w: seuf- zer der Na-|tur schau- ern|durch die wel- ken|Hai- ne,|durch die|wel- ken|Hai- *|ne.|Wie- der|
w: |||||||||
 G>!<(!FF/F/!<)! | AGF | E>!p!EG/F/ | .E.^D !fermata!z | z3 |!pp! =D/>D/D/!<(!D/=F/F/!<)! | %202
w: ist, wie bald, wie|bald! mir ein|Jahr da- hin ge-|schwun- den.||Fra- gend rauscht es durch den|
w: ||||||
 (E"^cresc." G2) | G/>G/^F/F/F/F/ |!f! AAA/A/ | A2!pp! B/>B/ | c>BA/F/ | E2 ^D | !fermata!z3 || %209
w: Wald: _|hat dein Herz sein Glück ge-|fun- den? durch den|||||
w: |||||||
[K:E][M:2/2]!mf! E3 E | E2 E2 E3 E |"^cresc." E4 G2 G2 | A2 A2 !>!A3 A | A2 A2!f! G3 G | %214
w: |||||
w: |||||
 G3 A A3 E | E4!p! E2 E2 | E3 E E2 D2 | D2 E2!f! G3 G | G3 c c3 E | E4!p! E2 E2 | G4 F2 E2 | %221
w: |||||||
w: |||||||
 D4!<(! E2 E2!<)! | G3 G F2 E2 | E2 D2 z4 | z4"^cresc." ^E3 E | ^E8 | ^E4!f! F3 F | F4 G2 G2 | %228
w: |||||||
w: |||||||
 A2 A2 !>!A3 A | A2 A2!f! G3 G | G3 A A3 E | E4!p! E2 E2 | E3 E E2 D2 | D2 E2 E4 | %234
w: |||||* * wie|
w: ||||||
"^cresc." E3 E E2 F2 |!f! F4 F4 | z4!f! (B2 ^B2) | c6 A2 | (G6 F2) | E4 z4 | z4!f! ^B4 | %241
w: neu- es, neu- es|Hof- fen,|wie _|neu- es|Hof- *|fen,|wie|
w: |||||||
 (c2"^dim." A2 G2) F2 | (E4 D4) | E4!p! D2 E2 | F2 A2 G2 F2 | E4 D2 E2 | F2 A2 G2 F2 | (F2 E2) z4 | %248
w: neu- * * es|Hof- *|fen, Treu- lich|||||
w: |||||||
 z4!f! A3 G | G8 | z4"^dim." F3 E | E4!p! D4 | C4 C4 | (E8 | D8) | !fermata!E8 |] %256
w: neu- es|Laub,|neu- es|Laub wie|neu- es|Hof-||fen.|
w: ||||||||
V:3
!p! B3 c2!<(! B!<)! |!>(! d2!>)! e !fermata!e3 | z6 | z6 |!f! B3{c} B^AB | e3 B3 | B3 B2 B | %7
w: O sanf- ter|sü- ßer Hauch!|||schon we- ckest du|wie- der|mir Früh- lings-|
w: |||||||
 B3 B2!p! B | BBB B2 B | B3 e3 | BBB ^A2 A | B6- |!<(! B6-!<)! |!f! B3- B2 z | F2 B ^A2 B | B6 | %16
w: lie- der, bald|blü- hen die Veil- chen|auch, bald|blü- hen die Veil- chen|auch,|_||blüh'n die Veil- chen|auch.|
w: |||||||||
!p! B3 B2!<(! B!<)! |!>(! B2!>)! B !fermata!B3 |!f! B3 c2!<(! B!<)! |!>(! e2!>)! =d !fermata!d3 | %20
w: O sanf- ter|sü- ßer Hauch!|O sanf- ter|sü- ßer Hauch!|
w: ||||
!f! =d3 feB | =d3 c3 | =d3 dcB | B3 A3 | e3 e2 A | A3 G3 |!pp! e6- | e6 | F2 G (BA)G | G3 z3 | %30
w: Schon we- ckest du|wie- der,|schon we- ckest du|wie- der|mir Früh- lings-|lie- der,|bald|_|blüh'n die Veil- * chen|auch,|
w: ||||||||||
!p! c2 z z2 B |"^cresc." B2 B B2 B |!<(! B6-!<)! |!>(! B3- B2!>)! c | e2 B B2 A | %35
w: bald, bald|blüh'n die Veil- chen|auch,|_ _ bald|blüh'n die Veil- chen|
w: |||||
 G2 z"^cresc." B3 |"^rit." c2 B d2 e | !fermata!e6 | G3 A2 G | B3- (BA)G | !fermata!G6 |] %41
w: auch. O|sanf- ter sü- sser|Hauch!|O sanf- ter|sü- * * ßer|Hauch!|
w: ||||||
[K:A][M:2/4]!p! cd/c/ | Bc e!<(!d/c/!<)! | dc fe/d/ | cB eB/c/ | e"^cresc." d3- | d2 ed/e/ | d c3 | %48
w: 1.~Lieb- li- che|Blu- me, bist du so|früh schon wie- der ge-|kom- men? Sei mir ge-|grü- ßet,|_ Bo- tin des|Früh- lings,|
w: 2.~Lei- ser denn|al- le Blu- men der|Wie- se hast du ge-|schlu- mmert, lieb- li- che|Pri- mel,|_ Bo- tin des|Früh- lings,|
 z2!<(! ee/e/!<)! |!f!!>(! c2 f2!>)! | f2-!p! fe/d/ | c2 d2 |!pp! cd/c/ c (d/c/) | cd/c/ (B>d) | %54
w: sei mir ge-|grü- ßet,|Bo- * tin des|Früh- lings!|1.+2.~Sei mir ge- grü- ßet, _|sei mir ge- grü- *|
w: lieb- li- che|Pri- mel,|Bo- * tin des|Früh- lings!|||
 c z cd/c/ | cd/c/ (B>d) | c z!f! (A/c/)e/=g/ | f2 (ed) | (ed) cd | (ce!p! d2) | !fermata!c2 |] %61
w: ßet, Bo- tin des|Früh- lings, des Früh- *|lings, sei _ mir ge-|grü- ßet, _|Bo- * tin des|Früh- * *|lings!|
w: |||||||
[K:E][M:3/4]!mf! e>B | B3 B B>B |!<(! (B2 e2 d2)!<)! |!f! cc (ed) (c^A) | c2 B2 z2 |!p! E4 D2 | %67
w: Sü- ßer,|gold'- ner Früh- lings-|tag! _ _|In- ni- ges _ Ent- *|zü- cken!|Wenn mir|
w: ||||||
 E6 | A2"^cresc." f2 e2 |!f! e2 ^d3 d | e2 d3 c | B2"^dim." c4 | z2!p! (B2 A2) | G2!f! B3 d | %74
w: je|ein Lied ge-|lang, sollt' es|heut', sollt' es|heut' nicht|glü- *|­cken? sollt' es|
w: |||||||
 e2 c3 d |!>(! (e2 B4-)!>)! | B2!p! A4 |!pp! A2 G2 ||!mf! e>B | B3 B B>B |!<(! B2 e2 d2!<)! | %81
w: heut', sollt' es|heut' _|_ nicht|glü- ­cken?||||
w: |||||||
!f! (c2 ed c)"^beit"c | c2 B2 z2 |!p! E4 D2 | E6 | A2"^cresc." f2 e2 |!f! e2 ^d3 d | e2 d3 c | %88
w: |||ist|ein ho- hes|Fest: lasst mich|ruh'n, lasst mich|
w: |||||||
 B2"^dim." c4 | z2!p! (B2 A2) | G2!f! B3 B | B2"^dim." e2 (dc) | (^B6 |!p! c4) c2 | %94
w: ruh'n und||||||
w: ||||||
 (!>!c2 =B2 A2) | G2 z2 z2 | z2!p!!<(! =d3 d!<)! |!>(! (=d6!>)! | c4) A2 | A6 | %100
w: ||lasst mich|ruh'n|_ und|be-|
w: ||||||
"^< >" !fermata!G4 |][K:G][M:4/4] z | z8 | z8 | z8 | z8 | z8 | z8 | z8 | z8 | z8 | z7 |:!f! d | %113
w: ten!||||||||||||Wie|
w: |||||||||||||
 d2 Bc d2 z d | (dg)Bc d2 z d | e2 dB e2 dB | (A3 d) d2 z A | A2 Bc d3 B | B2 cd e2!f! g2 | %119
w: lieb- li- cher Klang, o|Ler- * che, dein Sang! er|hebt sich, er~ schwingt sich in|Won- * ne. Du|nimmst mich von hier, ich|sin- ge mit dir, wir|
w: ||||||
 e2 de c2 Bc | A4 G2 g2 | e2 de c2 Bc | A4 G2 z | z | z2 z!f! G (GD)GB | d3 d (dG)Bd | g4 g4 | %127
w: stei- gen durch Wol- ken zur|Son- ne, wir|stei- gen durch Wol- ken zur|Son- ne.||Wie lieb- * li- cher|Klang, o Ler- * che, dein|Sang, o|
w: ||||||||
 f2- (3fed d2 z d | d2 dd d3 =f | =f2 ed c4 | z2 G2 A2 BG | (cedc Bd) g2 | z2 G2 A2 BG | %133
w: Won- * * * ne! Du|nimmst mich von hier, ich|sin- ge mit dir,|wir stei- gen durch|Wol- * * * * * ken,|durch Wol- ken zur|
w: ||||||
 (cedc BG)B :|!f! d | !fermata!d4 !fermata!G3!f! g | !fermata!g4 e4- | !fermata!e3 z4 z | %138
w: Son- * * * * * ne.|Zur|Son- ne! zur|Son- ne!|_|
w: |||||
 z2 z!f! d (dG)Bd | g4 d3 d | (d6 c2) | !fermata!B8 |][K:C][M:4/4]!f! c2 | e3 e B2 c2 | %144
w: ||||1.~O|wun- der- ba- res,|
w: ||||2.~Ich|füh- le mich wie|
 c3 c!>(! c2 B2!>)! |!p! G2 A>F F2 E2 |!pp! A2 (B>A) ^G3 G |"^cresc." (AB) (cd) c3 B | %148
w: tie- fes Schwei- gen,|wie ein- sam ist's noch|auf der _ Welt! Die|Wäl- * der * nur sich|
w: neu ge- schaf- fen,|wo ist die Sor- ge|nun und _ Not? Was|ges- * tern * noch mich|
 (AB) (ce)!<(! A2 d^F!<)! |!>(! G3 G!>)! G2!p! c2 | c2 B2!<(! c3!<)!!f! e | (e2 d>)c B3 g | %152
w: lei- * se _ nei- gen, als|ging' der Herr durch's|stil- le Feld, als|ging' _ der Herr, als|
w: wollt' * er- * schlaf- fen, dess|schäm' ich mich im|Mor- gen- rot, dess|schäm' _ ich mich, dess|
 (g2!>(! f>)e f2!>)! c2 | c3!p! c c2 B2 |"^< >" !fermata!c6 ||!f! G2 | c3 c f2 e2 | %157
w: ging' _ der Herr, der|Herr durch's stil- le|Feld.|3.~Die|Welt mit ih- rem|
w: schäm' _ ich mich _|_ im Mor- gen-|rot.|||
 f3 f!>(! c2 B2!>)! |!p! c2 c>G G2 G2 |!pp! A2 A2 A3 A |"^cresc." A2 (Ad) B3 B | %161
w: Gram und Glü- cke|will ich, ein Pil- ger,|froh- be- reit be-|­tre- ten _ nur als|
w: ||||
 (A"^cresc."B) (ce) A2 dd |!f!"^cresc." d3 d e2 (cd) | e2 (Bd) c3!f! e | (e2 d>)c B3 g | %165
w: ei- * ne _ Brü- cke zu|dir, Herr, ü- ber'n _|Strom der _ Zeit, zu|dir, _ zu dir, zu|
w: ||||
 (g2 f>)!>(!e f2 c2!>)! |!p! c3 c c2 B2 |"^< >" !fermata!c8 |][K:G][M:3/8]!p! B/B/ | %169
w: dir, _ zu dir, Herr,|ü- ber'n Strom der|Zeit!|Hol- der|
w: ||||
 c>c!<(!c/c/!<)! |!>(! cB!>)!A | (Ge/)=d/c/c/ | BB!p!B/B/ | c>"^cresc."cc/c/ | B2 B/B/ | %175
w: Lenz, du bist da-|hin! Nir- gends,|nir- * gends darfst du|blei- ben! Wo ich|sah dein fro- hes|Blüh'n, braust des|
w: ||||||
"^cresc." B>BB/B/ | B^A z |!f! (B^A)f | e"^dim." d2 | BB z |!p! ^cB z | z3 | %182
w: Herb- stes ban- ges|Trei- ben,|braust _ des|Herb- stes|ban- ges|Trei- ben.||
w: |||||||
!pp! B/>B/B/!<(!B/B/B/!<)! | (c"^cresc." e2) | G/>G/F/F/A/A/ |!f! (Af>e) | ^d2!p! d/>d/ | eBc/>c/ | %188
w: ||||||
w: ||||||
 B!p!"^sempre"BA | G/>B/Bc | BB z |!f! ^d2 =d | cc z | z!p! (BA) | G2 ||!f! B/B/ | %196
w: ||||||||
w: ||||||||
 c>!<(!cc/c/!<)! | cBA | G>!p!Bc/c/ | .B.B !fermata!z | z3 |!pp! B/>B/B/!<(!B/B/B/!<)! | %202
w: ||||||
w: ||||||
"^cresc." (c2 ^c) | d/>d/d/d/d/d/ |!f! fff/e/ | ^d2!pp! B/>B/ | c>BA/F/ | E2 ^D | !fermata!z3 || %209
w: ||fun- den? durch den|Wald: hat dein|Herz sein Glück ge-|fun- den?||
w: |||||||
[K:E][M:2/2]!mf! B3 B | B2 G2 =d3 d |"^cresc." =d4 d2 d2 | c2 c2 !>!=c3 c | B2 B2!f! e3 e | %214
w: Wal- des-|rau- schen, wun- der-|bar hast du|mir das Herz ge-|trof- fen! Treu- lich|
w: |||||
 e3 e e3 B | B4!p! B2 B2 | c3 c F2 F2 | F2 E2!f! e3 e | e3 e e3 c | c4!p! c2 B2 | ^A4 A2 A2 | %221
w: bringt ein je- des|Jahr neu- es|Laub wie neu- es|Hof- fen, treu- lich|bringt ein je- des|Jahr neu- es|Laub, neu- es|
w: |||||||
 B4!<(! c2 B2!<)! | ^A3 A A2 A2 | ^A2 B2"^cresc." B3 B | B8 | B4!f! B3 B | B8- | B4 G2 G2 | %228
w: Laub, neu- es|Laub wie neu- es|Hof- fen. Wal- des-|rau-|schen, wun- der-|bar|_ hast du|
w: |||||||
 c2 c2 !>!=c3 c | B2 B2!f! B3 e | e3 e e3 B | B4!p! B2 B2 | c3 c F2 F2 | F2 E2 B4 | %234
w: mir das Herz ge-|trof- fen! Treu- lich|bringt ein je- des|Jahr neu- es|Laub wie neu- es|Hof- fen, wie|
w: ||||||
"^cresc." c3 c c2 c2 |!f! B4 d4 | z4!f! (e2 d2) | (c4 e2) e2 | (e4 d4) | e4 z4 | z4!f! (e2 d2) | %241
w: ||||||wie *|
w: |||||||
 (c2"^dim." d2 e2) c2 | (B6 A2) | G4!p! B3 B | B8 | z4 B3 B | B8 | B4 z4 | z4!f! f3 e | e8 | %250
w: neu- * * es|Hof- *|fen, neu- es|Laub|neu- es|Hof-|fen,|||
w: |||||||||
 z4"^dim." A3 G | G4!p! F4 | E4 F4 | (B8 | A8) | !fermata!G8 |] %256
w: ||||||
w: ||||||
V:4
 x6 | x6 | x6 | x6 | x6 | x6 | x6 | x6 | x6 | x6 | x6 | x6 | x6 | x6 | x6 | x6 | x6 | x6 | x6 | %19
 x6 | x6 | x6 | x6 | x6 | x6 | x6 | x6 | x6 | x6 | x6 | x6 | x6 | x6 | x6 | x6 | x6 | x6 | x6 | %38
 x6 | x6 | x6 |][K:A][M:2/4] x2 | x4 | x4 | x4 | x4 | x4 | x4 | x4 | x4 | x4 | x4 | x4 | x4 | x4 | %55
 x4 | x4 | x4 | x4 | x4 | x2 |][K:E][M:3/4] x2 | x6 | x6 | x6 | x6 | x6 | x6 | x6 | x6 | x6 | x6 | %72
 x6 | x6 | x6 | x6 | x6 | x4 || x2 | x6 | x6 | x6 | x6 | x6 | x6 | x6 | x6 | x6 | x6 | x6 | x6 | %91
 x6 | x6 | x6 | x6 | x6 | x6 | x6 | x6 | x6 | x4 |][K:G][M:4/4] x | x8 | x8 | x8 | x8 | x8 | x8 | %108
 x8 | x8 | x8 | x7 |: x | x8 | x8 | x8 | x8 | x8 | x8 | x8 | x8 | x8 | x7 | x | x8 | x8 | x8 | x8 | %128
 x8 | x8 | x8 | x8 | x8 | x7 :| x | x8 | x8 | x8 | x8 | x8 | x8 | x8 |][K:C][M:4/4] x2 | x8 | x8 | %145
 x8 | x8 | x8 | x8 | x8 | x8 | x8 | x4 (f2 c2-) | c3 x x4 | x6 || x2 | x8 | x8 | x8 | x8 | x8 | %161
 x8 | x8 | x8 | x8 | x8 | x8 | x8 |][K:G][M:3/8] x | x3 | x3 | x3 | x3 | x3 | x3 | x3 | x3 | x3 | %178
 x3 | x3 | x3 | x3 | x3 | x3 | x3 | x3 | x3 | x3 | x3 | x3 | x3 | x3 | x3 | x3 | x2 || x | x3 | %197
 x3 | x3 | x3 | x3 | x3 | x3 | x3 | x3 | x3 | x3 | x3 | x3 ||[K:E][M:2/2] x4 | x8 | x8 | x8 | x8 | %214
 x8 | x8 | x8 | x8 | x8 | x8 | x8 | x8 | x8 | x8 | x8 | x8 | x8 | x8 | x8 | x8 | x8 | x8 | x8 | %233
 x8 | x8 | x8 | x8 | x8 | x8 | x8 | x8 | x8 | x8 | x8 | x8 | x8 | x8 | x8 | x8 | x8 | x8 | x8 | %252
 x8 | x8 | x8 | x8 |] %256
V:5
!p! E,3 E,2!<(! E,!<)! |!>(! E,2!>)! E, !fermata!E,3 | z6 | z6 |!f! E,3 E,E,E, | C3 B,3 | %6
w: ||||||
w: ||||||
 A,3 A,2 A, | A,3 G,2!p! G, | G,G,G, (G,F,)E, | D,3 E,3 | F,F,F, F,2 F, | G,2 z z3 |!p! F,2 z z3 | %13
w: |||||auch,|bald,|
w: |||||||
!f! E,3- E,2 z | F,2 F, F,2 B,, | B,,6 | z6 | !fermata!z6 |!f! E,3 E,2!<(! E,!<)! | %19
w: bald _|_ _ _ _|||||
w: ||||||
!>(! E,2!>)! E, !fermata!E,3 | z6 | z6 |!f! F,3 G,G,G, | G,3 A,3 | C3 C2 A, | A,3 B,3 | %26
w: |||||||
w: |||||||
!pp! C2 z z3 | ^A,2 z z3 | B,,2 B,, B,,2 B,, | C,3 z3 |!p! ^A,2 z z3 | z3 z2 =A, | %32
w: bald,|bald|||bald|bald|
w: ||||||
"^cresc." A,2!<(! A, A,2 A,!<)! |!>(! G,3- G,2!>)! A, | B,2 B,, B,,2 B,, | E,2 z z3 | z6 | z6 | %38
w: blüh'n die Veil- chen|auch, _ _|_ _ _ _||||
w: ||||||
!pp! E,3 E,2 E, | B,,3- B,,2 B,, |"^attacca" !fermata![E,,E,]6 |][K:A][M:2/4]!p! A,B,/A,/ | %42
w: ||||
w: ||||
 G,A, C!<(!B,/A,/!<)! | D,D, D,D,/D,/ | E,E, z2 | z2"^cresc." E,E,/F,/ | A, G,2 z | z2 A,A,/A,/ | %48
w: |||Sei mir ge-|grü- ßet,|Bo- tin des|
w: |||lieb- li- che|Pri- mel,|Bo- tin des|
 ^A,A,!<(! A,A,/A,/!<)! |!f!!>(! ^A,4!>)! | B,2!p! B,,C,/D,/ | E,2 E,2 |!pp! A,A,/A,/ A,A, | %53
w: Früh- lings, sei mir ge-|grü-|ßet, Bo- tin des|Früh- lings!||
w: Früh- lings, lieb- li- che|Pri-|mel, Bo- tin des|Früh- lings!||
 A,A,/A,/ A,2 | A,, z A,A,/A,/ | A,A,/A,/ A,2 | A,, z z2 | z2 z!f! D | (CB,A,G,) | A,!p!C, E,2 | %60
w: ||||du|Bo- * * *|tin des Früh-|
w: |||||||
"^attacca" !fermata!A,,2 |][K:E][M:3/4]!mf! A,>G, | G,3 G, F,>E, |!<(! E,6!<)! |!f! F,F, F,3 F, | %65
w: lings!||||* * * Ent-|
w: |||||
 ^A,2 B,2 z2 |!p! (G,,2 A,,2) B,,2 | C,6 | C,2"^cresc." =D,2 E,2 |!f! A,2 A,3 A, | G,4 A,2 | %71
w: zü- cken!|||||* es|
w: ||||||
 E,2"^dim." A,,4 | z2!p! B,,4 | E,2!f! A,3 A, | G,2 F,3 B,, |!>(! E,6!>)! |!p! A,,6 | %77
w: heut' nicht|||||nicht|
w: ||||||
!pp! B,,2 E,2 ||!mf! A,>G, | G,3 G, F,>E, |!<(! E,2 E,2 E,2!<)! |!f! F,4 (F,^A,) | ^A,2 B,2 z2 | %83
w: ||||Ar- beit _|_ _|
w: ||||||
!p! (G,,2 A,,2) B,,2 | C,6 | C,2"^cresc." =D,2 E,2 |!f! A,2 A,3 A, | G,4 A,2 | E,2"^dim." A,,4 | %89
w: ||||ruh'n, mich||
w: ||||||
 z2!p! B,,4 | E,2!f! A,3 A, | G,2"^dim." E,2 F,2 | (G,6 |!p! A,4) A,,2 | B,,6 | E,2 z2 z2 | z6 | %97
w: ||||||||
w: ||||||||
 z6 | z2!p! A,,3 A,, | A,,6 |"^< >" !fermata![E,,E,]4 |][K:G][M:4/4] z | z8 | z8 | z8 | z8 | z8 | %107
w: |ruh'n und|be-|ten!|||||||
w: ||||||||||
 z8 | z8 | z8 | z8 | z7 |:!f! B, | B,2 G,A, B,2 z B, | B,2 G,A, B,2 z B, | C2 B,G, C2 B,G, | %116
w: |||||||||
w: |||||||||
 D,4 F,2 z F, | F,2 G,A, B,3 G, | G,2 A,B, C2!f! E2 | C2 B,C A,2 G,A, | F,4 G,2 E2 | %121
w: |||||
w: |||||
 C2 B,C A,2 G,A, | D,4 G,2 z | z | z2 z!f! G, G,2 G,G, | G,3 G, G,2 G,G, | G,3 G, (G,A,)B,C | %127
w: |||||* er~ schwingt * sich in|
w: ||||||
 D4 D,2 z C | C2 B,A, G,3 G, | G,2 G,G, C,4 | z2 G,2 F,2 G,G, | D,4 G,4 | z2 G,2 F,2 G,G, | %133
w: ||||Wol- ken||
w: ||||||
 (F,4 G,D,)G, :|!f! G, | !fermata!G,4 !fermata!G,,3!f! C | !fermata!C4 C,4- | !fermata!C,3 z4 z | %138
w: |||||
w: |||||
 z8 | z2 z!f! G, (G,D,)G,B, | (D4 D,4) | !fermata!G,8 |][K:C][M:4/4]!f! C,2 | C3 C G,2 A,2 | %144
w: |durch Wol- * ken zur|Son- *|ne!|||
w: ||||||
 D,3 D,!>(! G,2 G,2!>)! |!p! G,2 A,>F, F,2 E,2 |!pp! D,2 D,2 E,3 E, |"^cresc." A,,2 A,,2 E,3 E, | %148
w: ||||
w: ||||
 (A,=G,) (^F,E,)!<(! D,2 D,C,!<)! |!>(! B,,3 B,,!>)! C,2!p! [^F,,^F,]2 | %150
w: ||
w: ||
 [G,,G,]2 [G,,G,]2!<(! C,3!<)!!f! C | (C2 B,>)A, G,3 F, | (E,2!>(! D,>)C, F,2!>)! ^F,2 | %153
w: |||
w: |||
 G,3!p! [G,,G,] [G,,G,]2 [G,,G,]2 |"^< >" !fermata!C,6 ||!f! C,2 | C,2 E,2 G,2 A,2 | %157
w: ||||
w: ||||
 [D,D]3 [D,D]!>(! G,3 F,!>)! |!p! E,2 F,>D, D,2 C,2 |!pp! F,,2 (F,,G,,) A,,3 G, | %160
w: |||
w: |||
"^cresc." F,2 (E,D,) E,3 E, | (A,"^cresc."G,) (^F,E,) D,2 D,C |!f!"^cresc." B,3 B, C2 F,2 | %163
w: |||
w: |||
 G,2 F,2 E,3!f! C | (C2 B,>)A, G,3 F, | (E,2!>(! D,>)C, F,2 ^F,2!>)! | %166
w: |||
w: |||
!p! G,3 [G,,G,] [G,,G,]2 [G,,G,]2 |"^< >" !fermata!C,8 |][K:G][M:3/8]!p! E,/E,/ | %169
w: |||
w: |||
 E,>E,!<(!E,/E,/!<)! |!>(! E,2!>)! E,/E,/ | E,G,A,/A,/ | B,B,!p!E,/E,/ | E,>"^cresc."E,D,/D,/ | %174
w: |* Nir- gends,|nir- gends * *|||
w: |||||
 G,2 G,/G,/ |"^cresc." G,>G,G,/F,/ | E,E, z |!f! (D,^C,)B,, | (E,"^dim."F,)G, | G,G, z | %180
w: ||||Herb- * stes||
w: ||||||
!p! F,B,, z | z3 | z3 |!p! C,/>C,/"^cresc."C,/C,/^C,/C,/ | D,2!f! D,/D,/ | ^D,>D,C/C/ | %186
w: |||Wie der Wind so trau- rig|fuhr durch den|Strauch, als ob er|
w: ||||||
 B,B,!p!B,,/>B,,/ | E,E,E,/>E,/ | E,!p!"^sempre"B,,^D, | E,/>E,/E,E, | E,E, z |!f! (B,A,)^G, | %192
w: wei- ne; * *||||||
w: ||||||
 A,A, z | z!p! B,,2 | E,2 ||!f! E,/E,/ | E,>!<(!E,E,/E,/!<)! | E,2 E,/E,/ | E,!p!G,,A,,/A,,/ | %199
w: |||||bald! mir ein|Jahr da- hin ge-|
w: |||||||
 .B,,.B,, !fermata!z | z3 | z3 | z3 | z3 |!f! ^D,/>D,/D,/D,/C/C/ | B,2!pp! B,/>B,/ | C>B,A,/F,/ | %207
w: schwun- den.|||||Fra- gend rauscht es durch den|||
w: ||||||||
 E,2 ^D, | !fermata!z3 ||[K:E][M:2/2]!mf! E,3 E, | E,2 E,2 E,3 E, |"^cresc." E,4 E,2 E,2 | %212
w: |||||
w: |||||
 E,2 E,2 !>!E,3 E, | E,2 E,2!f! E,3 C | C3 A, A,3 G, | G,4!p! G,,2 G,,2 | A,,3 A,, B,,2 B,,2 | %217
w: |||||
w: |||||
 E,2 E,2!f! E,3 C | C3 ^A, A,3 G, | G,4!p! F,2 F,2 | F,4 F,2 F,2 | F,4!<(! F,2 F,2!<)! | %222
w: |||||
w: |||||
 F,3 F, F,2 F,2 | F,2 B,,2 z4 | z4"^cresc." G,3 G, | G,8 | G,4!f! F,3 F, | F,4 ^E,2 E,2 | %228
w: ||Wal- des-|rau-|schen, wun- der-|bar * *|
w: ||||||
 F,2 F,2 !>!F,3 F, | B,,2 B,,2!f! E,3 C | C3 A, A,3 G, | G,4!p! G,,2 G,,2 | A,,3 A,, B,,2 B,,2 | %233
w: |||||
w: |||||
 C,2 C,2 G,4 |"^cresc." A,3 A, A,2 A,2 |!f! A,4 A,4 | z4!f! G,4 | A,6 A,2 | (B,4 ^B,4) | C4 z4 | %240
w: |||||||
w: |||||||
 z4!f! G,4 | (C2"^dim." F,2 G,2) A,2 | (B,4 B,,4) | E,4 z4 | z4!p! B,,3 B,, | B,,8 | %246
w: ||||neu- es|Laub|
w: ||||||
 z2 B,,2 C,2 D,2 | D,2 E,2 z4 | z4!f! D,3 E, | E,8 | z4"^dim." D,3 E, | E,4!p! ^B,,4 | C,4 A,,4 | %253
w: wie neu- es|Hof- fen,||||||
w: |||||||
 B,,8- | B,,8 | !fermata![E,,E,]8 |] %256
w: |||
w: |||
V:6
 x6 | x6 | x6 | x6 | x6 | x6 | x6 | x6 | x6 | x6 | x6 | x6 | x6 | x6 | x6 | x6 | x6 | x6 | x6 | %19
 x6 | x6 | x6 | x6 | x6 | x6 | x6 | x6 | x6 | x6 | x6 | x6 | x6 | x6 | x6 | x6 | x6 | x6 | x6 | %38
 x6 | x6 | x6 |][K:A][M:2/4] x2 | x4 | x4 | x4 | x4 | x4 | x4 | x4 | x4 | x4 | x4 | x4 | x4 | x4 | %55
 x4 | x4 | x4 | x4 | x4 | x2 |][K:E][M:3/4] x2 | x6 | x6 | x6 | x6 | x6 | x6 | x6 | x6 | x6 | x6 | %72
 x6 | x6 | x6 | x6 | x6 | x4 || x2 | x6 | x6 | x6 | x6 | x6 | x6 | x6 | x6 | x6 | x6 | x6 | x6 | %91
 x6 | x6 | x6 | x6 | x6 | x6 | x6 | x6 | x6 | x4 |][K:G][M:4/4] x | x8 | x8 | x8 | x8 | x8 | x8 | %108
 x8 | x8 | x8 | x7 |: x | x8 | x8 | x8 | x8 | x8 | x8 | x8 | x8 | x8 | x7 | x | x8 | x8 | x8 | x8 | %128
 x8 | x8 | x8 | x8 | x8 | x7 :| x | x8 | x8 | x8 | x8 | x8 | x8 | x8 |][K:C][M:4/4] x2 | x8 | x8 | %145
 x8 | x8 | x8 | x8 | x8 | x8 | x8 | x4 (F,2 ^F,2 | G,3) x x4 | x6 || x2 | x8 | x8 | x8 | x8 | x8 | %161
 x8 | x8 | x8 | x8 | x8 | x8 | x8 |][K:G][M:3/8] x | x3 | x3 | x3 | x3 | x3 | x3 | x3 | x3 | x3 | %178
 x3 | x3 | x3 | x3 | x3 | x3 | x3 | x3 | x3 | x3 | x3 | x3 | x3 | x3 | x3 | x3 | x2 || x | x3 | %197
 x3 | x3 | x3 | x3 | x3 | x3 | x3 | x3 | x3 | x3 | x3 | x3 ||[K:E][M:2/2] x4 | x8 | x8 | x8 | x8 | %214
 x8 | x8 | x8 | x8 | x8 | x8 | x8 | x8 | x8 | x8 | x8 | x8 | x8 | x8 | x8 | x8 | x8 | x8 | x8 | %233
 x8 | x8 | x8 | x8 | x8 | x8 | x8 | x8 | x8 | x8 | x8 | x8 | x8 | x8 | x8 | x8 | x8 | x8 | x8 | %252
 x8 | x8 | x8 | x8 |] %256

